X:1
T:Isn't This A Lovely Day
T:Isn't This A Lovely Day
T:Irving Berlin
T:Arr: Jon Burr
T:2
T:Isn't This A Lovely Day
C:Irving Berlin
Z:All Rights Reserved
L:1/8
Q:1/4=120
M:4/4
K:G
V:1 treble nm="MusicXML Part"
%%MIDI program 54
%%MIDI control 7 102
%%MIDI control 10 64
V:1
 D ||"G6" EEEE- E B2 E |"G#dim" =FFFF- F B3 |"Am6" !courtesy!^FFFe-"D7" ed ^c2 |"G" d6 Bc | %5
w: The|weath- er is fright'- * ning The|thun- der and light- * ning|Seem to be hav- * ing their|way But as|
 d2 e2"G#dim" c2 d2 |"Am7" (3B2 c2 A2"D7" G2 F2 |"G""G#dim" G8- |"Am7" G4"D7" z2 z D | %9
w: far as I'm con-|cerned, it's a love- ly|day|_ The|
"G" EEEE- E B2 E |"G#dim" =FFFF- F B3 |"Am6" !courtesy!^FFFe-"D7" ed ^c2 |"G" d6 B^c | %13
w: turn in the weath- * er Will|keep us to- geth- * er|So I can hon- * est- ly|say That as|
"Bm" d2 e2 f2 e2 |"^C#¿7" (3d2 ^c2 B2"F#7" ^A2 c2 |"Bm""E7" B8- |"Am7" BBc"D7"B A2 B2 | %17
w: far as I'm con-|cerned, it's a love- ly|day|_ And ev- 'ry- thing's o.-|
"G""G7/F" G8- |"Em7""G7/D" G8 |:"C" EGAB A A2 A- |"Cm6" A^ABd- dABD- |"G""G7/F" D8- | %22
w: k.|_|Is- n't this a love- ly day|_ To be caught _ in the rain?|_|
"Em7""G7/D" D8 | E"C"GAB A A2 A- |"Cm6" A^ABd- dABe- |"G" e8- | e8 |"G/B" z2 f2 f2 f2 | %28
w: |You were go- ing on your way|_ Now you've got _ to re- main|_||Just as you|
"Bbdim" z2 f2 f2 f2 |"Am6" (3f2 =f2 e2"G#dim" e e2 e- |"Am7""D7" e8 |"G" z2 d2 d2 d2 | %32
w: were go- ing,|leav- ing me all at sea|_|The clouds broke,|
"Gb+" z2 d2 d2 d2 |"Bb/F" (3=f2 d2 _B2 =F2 G2 |"Am6""D7" A8 |"C" EGAB A A2 A- |"Cm6" A^ABd- dABD- | %37
w: they broke and|oh! What a break for|me|I can see the sun up high|_ Tho' we're caught _ in the storm|
"G""G7/F" D8- |"Em7""G7/D" D8 | E"C"GAB A A2 A- |"Cm6" A^ABd- dABe- |"G" e8- | e4 d2 e2 | %43
w: _||I can see where you and I|_ Could be co- * zy and warm|_|* Let the|
"Dm/G" =f2 ee ddcc | BBAA GGAA |"Em7" B4 G2 B2- |"A9" B8 |"C" EGAB A A2 A- |"Cm6" A2 AG F2 A2 | %49
w: rain pit- ter pat- ter But it|real- ly does- n't mat- ter If the|skies are gray|_|Long as I can be with you|_ it's a love- ly|
"G" G8- | G8 :| %51
w: day|_|

